X:1
T:1.
T:Op. 121, N° 1.
T:1.
T:(Prediger Salomo, Kap. 3.)
T:Copyright © 2009 by the Choral Public Domain Library (http://www.cpdl.org) Edition may be freely distributed, duplicated, performed, or recorded.
T:Copyright © 2009 by the Choral Public Domain Library (http://www.cpdl.org) Edition may be freely distributed, duplicated, performed, or recorded.
T:Copyright © 2009 by the Choral Public Domain Library (http://www.cpdl.org) Edition may be freely distributed, duplicated, performed, or recorded.
T:Copyright © 2009 by the Choral Public Domain Library (http://www.cpdl.org) Edition may be freely distributed, duplicated, performed, or recorded.
T:Copyright © 2009 by the Choral Public Domain Library (http://www.cpdl.org) Edition may be freely distributed, duplicated, performed, or recorded.
T:Copyright © 2009 by the Choral Public Domain Library (http://www.cpdl.org) Edition may be freely distributed, duplicated, performed, or recorded.
T:Copyright © 2009 by the Choral Public Domain Library (http://www.cpdl.org) Edition may be freely distributed, duplicated, performed, or recorded.
T:Copyright © 2009 by the Choral Public Domain Library (http://www.cpdl.org) Edition may be freely distributed, duplicated, performed, or recorded.
T:Copyright © 2009 by the Choral Public Domain Library (http://www.cpdl.org) Edition may be freely distributed, duplicated, performed, or recorded.
T:Copyright © 2009 by the Choral Public Domain Library (http://www.cpdl.org) Edition may be freely distributed, duplicated, performed, or recorded.
T:Copyright © 2009 by the Choral Public Domain Library (http://www.cpdl.org) Edition may be freely distributed, duplicated, performed, or recorded.
C:Op. 121, N° 1.
Z:Copyright © 2009 by the Choral Public Domain Library (http://www.cpdl.org)
Z:Edition may be freely distributed, duplicated, performed, or recorded.
%%score ( 1 2 ) { ( 3 4 ) | ( 5 6 ) }
L:1/8
Q:1/4=80
M:4/4
K:F
V:1 bass nm="Baritone"
V:2 bass 
V:3 bass nm="Piano"
V:4 bass 
V:5 bass 
V:6 bass 
V:1
"^Andante." z8 | z8 | (D,E,) (F,E,) D,2 A,,A,, | (D,E,) (F,G,) F,2 E,2 | D,4 z2 A,2 | %5
w: ||Denn _ es _ ge- het dem|Mensch- * en _ wie dem|Vieh, wie|
 ^G,2 A,2 z2 D2 | (=G,2 F,2) z2 E,2 | D,2 A,2 (F2 ^C2) | (D2 A,2) z2 A,2 | (G,2 F,2) z2 E,2 | %10
w: dies stirbt, so|stirbt _ er|auch, wie dies _|stirbt, _ so|stirbt _ er|
 E,4 z4 | z8 | z2 A,2 A,2 A,2 | (^C,D,) (E,F,) (G,A,)B,G, | A,2 A,2 z2 D,2 | (A,B,) (CB,) A,2 E,2 | %16
w: auch;||und ha- ben|al- * le _ ei- * ner- lei|O- dem, und|ha- * ben _ al- le|
 (A,B,)CB, (A,G,) (F,E,) | (D,E,) (F,E,) D,2 A,,2 | (D,E,) (F,G,) F,2 E,2 | D,4 z2 A,2 | %20
w: ei- * ner- lei O- * dem; _|und _ der _ Mensch hat|nichts _ mehr _ denn das|Vieh: denn|
 ^G,2 A,2 D2 D,2 | (=G,2 F,4 E,2) | D,2 A,2 F2 ^C2 | (D2 ^G,4) A,2 | (=G,2 F,4 E,2) | %25
w: es ist al- les|ei- * *|tel, denn es ist|al- * les|ei- * *|
[M:3/4]"^Allegro."[Q:1/4=120] D,4 z2 | z6 | z6 | z6 | z6 | z6 | z2 ^F,2 G,2 | A,2 C2 D2 | %33
w: tel.||||||Es fährt|al- les an|
 (_E2 C2) A,2 | ^F,4 z2 | z2 ^G,2 A,2 | =B,2 D2 =E2 | F2 D2 =B,2 | ^G,4 z2 | z2 _B,2 A,2 | %40
w: ei- * nen|Ort;|es ist|al- les von|Staub _ ge-|macht,|und wird|
 =G,2 E,2 D,2 | ^C,4 z2 | z6 | z6 | z2 z2 D2 | D,6 | F,4 F,2 | B,4 B,2 | D4 D,2 | A,4 =B,2 | %50
w: wie- der zu|Staub.|||Wer|weiß,|ob der|Geist des|Men- schen|auf- wärts|
 ^C2 A,2 z2 | ^C4 ^D2 | E2 ^C2 z2 | (E2 ^C2) A,2 | ^G,2 G,2 z2 | z6 | z6 | z6 | z6 | ^C,4 E,2 | %60
w: fah- re,|auf- wärts|fah- re,|auf- * wärts|fah- re,|||||und der|
 (E,4 A,2) | A,4 ^C2 | ^C4 ^C,2 | ^G,4 ^F,2 | E,4 z2 | E,2 E,2 ^D,2 | ^C,2 C,2 z2 | E,4 =D,2 | %68
w: O- *|dem des|Vie- hes|un- ter-|wärts|un- ter die|Er- de,|un- ter-|
 ^C,4 z2 | E,2 E,2 D,2 | ^C,4 =B,,2 | A,,4 A,,2 | z6 | z6 | z6 || %75
w: wärts|un- ter die|Er- de|fah- re?||||
[M:4/4]"^Andante."[Q:1/4=80] (D,E,) (F,E,) D,D, A,,2 | (D,E,) (F,G,) F,2 E,2 | D,2 D2 D2 D2 | %78
w: Dar- * um _ sa- he ich,|daß _ nichts _ bes- sers|ist, denn daß der|
 (^F,G,)A,B, CD_EC | D2 A,2 z2 A,,2 | A,4 F,2 E,2 |[M:3/4]"^Allegro."[Q:1/4=120] D,4 z2 | z6 | z6 | %84
w: Mensch _ fröh- lich sei in sei- ner|Ar- beit; denn|das ist sein|Teil.|||
 z6 | z6 | z6 | z2 ^F,2 G,2 | A,2 C2 D2 ||[M:9/4] (_E2 C2) A,2 D6 G,2 z2 z2 | %90
w: |||Denn wer|will _ ihn|da- * hin brin- gen,|
 (=E2 ^C2) D2 D6 E,2 z2 z2 | (E,2 F,2) G,2 A,4 A,2 A,4 A,2 | A,6- A,2 z2 z2 D,4 A,2 | A,12 G,6 | %94
w: daß _ er se- he,|was _ nach ihm ge- sche- hen|wird; _ was nach|ihm ge-|
 D12 G,6 | A,6- A,4 z2 z6 | z18 | z18 |] %98
w: sche- hen|wird? _|||
V:2
 x8 | x8 | x8 | x8 | x8 | x8 | x8 | x8 | x8 | x8 | x8 | x8 | x8 | x8 | x8 | x8 | x8 | x8 | x8 | %19
 x8 | x8 | x8 | x2 C,2 B,,2 A,,2 | x8 | x8 |[M:3/4] x6 | x6 | x6 | x6 | x6 | x6 | x6 | x6 | x6 | %34
 x6 | x6 | x6 | x6 | x6 | x6 | x6 | x6 | x6 | x6 | x6 | x6 | x6 | x6 | x6 | x6 | x6 | x6 | x6 | %53
 x6 | x6 | x6 | x6 | x6 | x6 | x6 | x6 | x6 | x6 | x6 | x6 | x6 | x6 | x6 | x6 | x6 | x6 | x6 | %72
 x6 | x6 | x6 ||[M:4/4] x8 | x8 | x8 | x8 | x8 | x8 |[M:3/4] x6 | x6 | x6 | x6 | x6 | x6 | x6 | %88
 x6 ||[M:9/4] x18 | x18 | x18 | x18 | x18 | x18 | x18 | x18 | x18 |] %98
V:3
 (A,2 A,2 A,2 A,2) | (A,2 A,2 A,2 A,2) | ([A,A]2 [A,A]2 [A,A]2 A2) | ([A,A]2 [A,A]2 [A,A]2 A2) | %4
 ([B,B]2 [A,A]2 [A,A]2 A2) | [B,B]2 [A,A]2 [A,A]2 [A,A]2 | G2 [B,B]2 z2 A2 | %7
 [A,A]2 [A,A]2 [B,B]2 [B,B]2 | [A,DA]4[K:bass] A,4 | [D,B,]4 [D,^G,=B,]4 | A,2 A,2 A,2 A,2 | %11
 [^C,A,][D,_B,] [E,=C][D,B,] A,2 G,2 | A,2 A,2 A,2 A,2 | A,2 A,2 A,2 [G,_B,]2 | %14
!>(! A,2!>)! A,2!>(! A,2!>)! A,2 |!<(! A,2 G,2 A,2 G,2!<)! | %16
!>(! [^C,A,][D,B,] [E,=C][D,B,] A,E, F,!>)!G, | [A,A]2 [A,A]2 [A,A]2 [A,A]2 | %18
 [A,A]2 [A,A]2 [A,A]2 A2 | [B,B]2 [A,A]2 [A,A]2 [A,A]2 |!<(! [B,B]2 [A,A]2 [A,A]2!<)! [A,A]2 | %21
!>(! G2 [B,B]2!>)! z2 A2 |!<(! [A,A]2 [A,A]2 [B,B]2!<)! [A,A]2 |!>(! [^G,D^G]4[K:bass] D2!>)! A,2 | %24
!p! [D,B,]4 [^C,A,]4 |[M:3/4] (3z (D,E,!<(! (3F,^G,A, (3=B,D!<)!E | %26
!>(! (3FD=B,(3^G,!>)!B,D(3FDB,) | (3z (^CD!<(!(3EGA(3_B^c!<)!d |!>(! (3e^cB(3G!>)!Bc(3ecB) | %29
 (3z =cd (3_e^fg(3=ac'd' | (3(_e'c'a(3^fac'(3e'c'a) | (3(^fac' (3_e'_ed'(3d^c'^c | %32
!<(! (3=c'=cb(3BaA(3gG!<)!^f |!>(! (3^FA_e (3_EFc (3CE!>)!A | (3A,C^D(3^FAc (3^d^fa) | %35
 (3(^g=bd' (3f'fe'(3e^d'^d | (3d'=dc'(3c=b=B(3aA^g) | (3(^G=Bf (3FGd (3DFB) | %38
 (3(=B,DF(3^G=Bd(3f^g=b | (3_b=ge (3^cBe (3cAe | (3^cGe (3GEB(3GDB | %41
 (3G^CB)[K:bass] (3(B,EC(3A,EC) | (3(G,E^C (3E,B,G,(3D,B,G, | (3^C,B,G,) z2 (3(C,A,F,) | %44
 z2 (3(^C,A,E,) z2 | z2!f! [DFAd]2 [A,D]2 | z2 [FBdf]2 [B,DF]2 | z2 [Bdgb]2 [DGB]2 | %48
 z2 [dfad']2 [FAd]2 | z2!p! [A,^CA]2 [A,DF]2 | [A,^CE]2!f! [A^cea]2 [=Bfa=b]2 | %51
 [^cea^c']2!p! [^CEc]2 [C^FA]2 | [^CE^G]2!f! .[^ca^c']2 .[^dac'^d']2 | %53
 [e^g^c'e']2 [egc'e']2 [^fc'^f']2 | [^g^b^d'^g']2 (3(aa'^f'(3gg'e' | (3^f^f'^d' (3^dd'a(3^c^c'a | %56
 (3^B^ba) (3(Aa^f(3^G^ge | (3^F^f^d (3^DdA(3^C^cA | (3^B,^B^G) z2 z2 | z2!f! [^CE^G^c]2 [^G,C]2 | %60
 z2 [EA^ce]2 [A,^CE]2 | z2 [A^c^fa]2 [^C^FA]2 | z2 [^ce^g^c']2 [E^Gc]2 |!p! z6 | %64
 z2 .[^G^c^g]2 .[G^B^f]2 | .[^G^ce]2[I:staff +1] .[E,^G,^C]2 .[A,C^D]2 | %66
 .[A,^CE]2[I:staff -1] .[E^G^ce]2 .[Ac^d]2 | %67
"^dim." .[EA^c]2[I:staff +1] .[E,A,^C]2 .[=F,A,=B,=D]2 | %68
 .[E,A,^CE]2[I:staff -1] .[EA^ce]2 .[=FA=Bd]2 | [EA^c]2[K:bass]!>(! [^E,A,^C]2 [F,A,=B,]2 | %70
 z2 [E,A,]2!>)! [F,A,=B,]2 | z2!p!"^poco rit." [^C,A,^C]4 | z2 [^C,A,^C]4 | z2 [^C,A,^C]4 | %74
 z2 [^C,A,^C]4 ||[M:4/4][K:treble] ([A,A]2 [A,A]2 [A,A]2 [A,A]2) | ([A,A]2 [A,A]2 [A,A]2 [A,A]2) | %77
[K:bass] D2 D2 D2 D2 | D2 D2!<(! D2!<)! [C_E]2 | D6!pp! ([D,=F,][E,G,]) | A,4 A,2 A,2 | %81
[M:3/4]!pp! (3z (D,E, (3F,^G,A,!<(!(3=B,D!<)!E |!>(! (3FD=B, ^G,) x x2!>)! | %83
 (3z (^CD (3EG"^cresc."A (3_B^cd | (3e^cB (3G) x x (3x x x |!<(! (3z (=cd (3_e^fg (3ac'd' | %86
 (3_e'c'a (3^fac' (3e'c'!<)!a) | (3(^fa!<(!c' (3_e'd'^c' (3=c'ba | (3g^f=f (3_ed^c (3=cB!<)!A) || %89
[M:9/4] (3(G^FG(3FGF(3GFG) (3(FGF(3GFG(3FGF (3GFG(3FGF(3GFG) | %90
 (3(=FGF(3GFG(3FGF) (3(FEF(3EFE(3FEF (3EFE(3FEF(3EFE) | [G,DE]2 z2 z2[K:bass]!p! [A,D]6 [A,^C]6 | %92
 [A,=C]12 [D,A,C]6 | [A,=B,]12-!>(! [A,B,]6 | [G,_B,]12- [G,B,]6!>)! | %95
!p! (3(D,A,D,(3A,D,A,(3D,A,D,- [D,A,]4) (3(D,A,D,-!>(! [D,A,]4) (3(D,A,D,-!>)! | %96
 [D,A,]12)[K:treble] z2!f! .[dfad']2 z2 | !fermata![F,A,D]12 z6 |] %98
V:4
 D,E, F,E, D,2 A,,2 | D,E, F,G, F,2 E,2 | DE FE D2 A,2 | DE FE D2 A,2 | DE FE D2 A,2 | %5
 DE FE D2 A,2 | DE FE D2 A,2 | DEFE DEFE | x4[K:bass] D,4 | x8 | ^C,D, E,2 D,E, F,2 | %11
 A,2 G,2 ^C,D, E,D, | ^C,D, E,2 D,E, F,2 | G,F, E,D, ^C,2 D,2 | ^C,D, E,2 D,E, F,2 | %15
 [^C,A,][D,_B,] [E,=C][D,B,] C,D, E,D, | A,2 G,2 ^C,2 C,2 | DE FE D2 A,2 | DE FE D2 A,2 | %19
 DE FE D2 A,2 | DE FE D2 A,2 | DE FE D2 A,2 | DEFEDEF^C | x4[K:bass] D,4 | x4 x4 |[M:3/4] x6 | x6 | %27
 x6 | x6 | x6 | x6 | x6 | x6 | x6 | x6 | x6 | x6 | x6 | x6 | x6 | x6 | x2[K:bass] x4 | x6 | x6 | %44
 x6 | x6 | x6 | x6 | x6 | x6 | x6 | x6 | x6 | x6 | x6 | x6 | x6 | x6 | x6 | x6 | x6 | x6 | x6 | %63
 x6 | x6 | x6 | x6 | x6 | x6 | x2[K:bass] x4 | x6 | x6 | x6 | x6 | x6 || %75
[M:4/4][K:treble] (DE) (FE) D2 A,2 | (DE) (FE) D2 A,2 |[K:bass] (^F,G,) A,2 (G,A,) B,2 | %78
 (CB,) (A,G,) ^F,2 G,2 | ([D,^F,]!>(![E,G,])!>)! F,4 x2 | F,4 C,D, E,2 |[M:3/4] x6 | x6 | x6 | x6 | %85
 x6 | x6 | x6 | x6 ||[M:9/4] [A,_E]6 [G,D]6 [G,D]6 | A,6 [B,D]6 [A,D]6 | x6[K:bass] x12 | %92
 (3(E,F,E,(3F,E,F,(3E,F,E, (3F,E,F,(3E,F,E,(3F,E,G,) (3(G,^F,G,(3F,G,F,(3G,F,A,) | %93
 (3D,E,D, (3E,D,E, (3D,E,D, (3E,D,E, (3D,E,D, (3E,D,E, (3D,E,D, (3E,D,E, (3D,E,D, | %94
 (3D,E,D, (3E,D,E, (3D,E,D, (3E,D,E, (3D,E,D, (3E,D,E, (3D,E,D, (3E,D,E, (3D,E,D, | x18 | %96
 x12[K:treble] x6 | x18 |] %98
V:5
!p!"^semplice" A,,2 A,,2 A,,2 A,,2 | A,,2 A,,2 A,,2 A,,2 | A,,2 A,,2 A,,2 A,,2 | %3
 A,,2 A,,2 A,,2 A,,2 | B,,2 A,,2 A,,2 A,,2 |!<(! B,,2 A,,2 A,,2!<)! F,,2 | %6
!>(! D,E, F,E, D,2!>)! A,,2 |!<(! D,E,F,E, D,E,F,!<)!E, |!>(! [F,,D,]4!>)!!p! [F,,,F,,]4 | %9
 [G,,,G,,]4 [E,,,E,,]4 |!>(! A,,2!>)! A,,2!>(! A,,2!>)! A,,2 | %11
!<(! [A,,,A,,]2!<)!!>(! [E,,,E,,]2!>)! [A,,,A,,][_B,,,_B,,] [=C,,C,][B,,,B,,] | %12
!>(! A,,2!>)! A,,2!>(! A,,2!>)! A,,2 | A,,2 A,,2 A,,2 E,,2 | A,,2 A,,2 A,,2 A,,2 | %15
 [A,,,A,,]2 [E,,,E,,]2 [A,,,A,,][_B,,,_B,,] [=C,,C,][B,,,B,,] | %16
 [A,,,A,,]2 [E,,,E,,]2 [A,,,A,,]2 [A,,,A,,]2 |"^sotto voce" A,,2 A,,2 A,,2 A,,2 | %18
 A,,2 A,,2 A,,2 A,,2 | B,,2 A,,2 A,,2 A,,2 | B,,2 A,,2 A,,2 F,,2 | D,E, F,E, D,2 A,,2 | %22
 D,E,F,E, D,E,F,^C, | [E,,,E,,]4 [F,,,F,,]4 | [=G,,,=G,,]4 [A,,,A,,]4 |[M:3/4]!pp! D,,2 D,,2 D,,2 | %26
 D,,2 D,,2 D,,2 | [=G,_B,]6- | [G,B,]6 | [^FA]6 | [^F,A,]6 | [A,,=C,]6- | [A,,C,]6 | C,6 | =B,,6 | %35
 [=B,,D,]6- | [B,,D,]6 | =B,,6 | E,6 | [E,=G,]6- | [E,G,]6 | A,,2 A,,2 A,,2 | A,,2 A,,2 A,,2 | %43
 A,,2 A,,2 z2 | A,,2 z2 z2 | z2 [D,,D,]2 [D,F,]2 | z2 [B,,,B,,]2 [B,,D,F,]2 | %47
 z2 [G,,,G,,]2 [D,G,B,]2 | z2 [D,,,D,,]2 [F,A,D]2 | z2 A,,2 D,,2 | A,,,2 [A,,A,]2 [D,,D,]2 | %51
 [A,,,A,,]2 A,,2 ^F,,2 | ^C,,2 [A,,,A,,]2 [^F,,,^F,,]2 | [^C,,,^C,,]2 [^C,^C]2 [A,,C,A,]2 | %54
 [^G,,^B,,^D,^G,]2[K:treble] [^FA]2 [E^G]2 | [^D^F]2 [^B,D]2 [^CE]2 | %56
 [^D^F]2[K:bass] [^G,,^B,,]2 [^A,,^C,]2 | [^B,,^D,]2 ^F,,2 ^^F,,2 | ^G,,2 z2 z2 | %59
 z2 [^C,,^C,]2 [C,E,]2 | z2 [A,,,A,,]2 [A,,^C,E,]2 | z2 [^F,,,^F,,]2 [^C,^F,A,]2 | %62
 z2 [^C,,,^C,,]2 [^C,E,^G,]2 | z2 [^G,^C]2 [G,^B,^D]2 | [^G,^CE]2 .E,2 .G,2 | .^C2 .^C,,2 .^F,,2 | %66
 .A,,2 .^C,2 .^F,2 | .A,2 .A,,,2 .=D,,2 | .A,,2 .A,,2 .D,2 | A,2 A,,,2 D,,2 | z2 A,,,2 D,,2 | %71
 A,,4 z2 | [=G,,A,,]4 z2 | [=F,,A,,]4 z2 | [E,,A,,]4 z2 ||[M:4/4] A,,2 A,,2 A,,2 A,,2 | %76
 A,,2 A,,2 A,,2 A,,2 | D,2 D,2 D,2 D,2 | D,2 D,2 D,2 A,,2 | [D,,D,]4 [A,,,A,,]4 | %80
 [A,,,A,,]4 A,,=B,, ^C,2 |[M:3/4] D,,2 D,,2 D,,2 | %82
!<(! (3z ^G,,A,, (3=B,,[I:staff -1]D,E,(3F,^G,A,!<)! |!>(![I:staff +1] (3_B,!>)!=G,E, ^C,4 | %84
 (3z G,A, (3B,[I:staff -1]^CD(3E^FG | (3[DA]^F_E[I:staff +1] =C4 | [A,,C,]6 | [A,C]6- | [A,C]6 || %89
[M:9/4]!>(! C,2!>)! C,2 C,2!>(! =B,,2!>)! B,,2 B,,2!>(! _B,,2!>)! B,,2 B,,2 | %90
!>(! A,,2!>)! A,,2 A,,2!>(! G,,2!>)! G,,2 G,,2!>(! A,,2!>)! A,,2 A,,2 | %91
 [B,,,B,,]2 z2 z2 E,!<(!F,E,F,E,F, E,F,E,F,E,F,!<)! | %92
 A,,2 A,,2 A,,2 A,,2 A,,2 A,,2 D,,2 D,,2 D,,2 | E,,2 D,,2 D,,2 D,,2 D,,2 D,,2 D,,2 D,,2 D,,2 | %94
 D,,2 D,,2 D,,2 D,,2 D,,2 D,,2 D,,2 D,,2 D,,2 | D,,2 D,,2 D,,2- D,,2 D,,4- D,,2 D,,4- | %96
 D,,2 D,,4- D,,6 z2 .[D,,,D,,]2 z2 | !fermata![D,,F,,A,,D,]12 z6 |] %98
V:6
 D,,E,, F,,E,, D,,2 A,,,2 | D,,E,, F,,E,, D,,2 A,,,2 | D,,E,, F,,E,, D,,2 A,,,2 | %3
 D,,E,, F,,E,, D,,2 A,,,2 | D,,E,, F,,E,, D,,2 A,,,2 | D,,E,, F,,E,, D,,2 F,,,2 | %6
 B,,2 G,,2 z2 A,,,2 | D,2 C,2 B,,2 G,,2 | x8 | x8 | A,,,=B,,, ^C,,2 B,,,C,, D,,2 | x8 | %12
 A,,,=B,,, ^C,,2 B,,,C,, D,,2 | E,,D,, ^C,,=B,,, A,,,2 E,,,2 | A,,,=B,,, ^C,,2 B,,,C,, D,,2 | x8 | %16
 x8 | D,,E,, F,,E,, D,,2 A,,,2 | D,,E,, F,,E,, D,,2 A,,,2 | D,,E,, F,,E,, D,,2 A,,,2 | %20
 D,,E,, F,,E,, D,,2 F,,,2 | B,,2 G,,2 z2 A,,,2 | D,2 C,2 B,,2 F,,2 | x8 | x8 |[M:3/4] D,,,6- | %26
 D,,,6 | .D,2 .D,2 .D,2 | .D,2 .D,2 .D,2 | .D2 .D2 .D2 | D,2 D,2 D,2 | D,,2 D,,2 D,,2 | %32
 D,,2 D,,2 D,,2 | C,,2 C,,2 C,,2 | =B,,,2 B,,,2 B,,,2 | =E,,2 E,,2 E,,2 | E,,2 E,,2 E,,2 | %37
 D,,2 D,,2 D,,2 | E,,2 E,,2 E,,2 | A,,2 A,,2 A,,2 | A,,2 A,,2 A,,2 | A,,,6- | A,,,6- | A,,,6 | x6 | %45
 x6 | x6 | x6 | x6 | x6 | x6 | x6 | x6 | x6 | x2[K:treble] ^G,4- | G,2 ^G,4- | G,2[K:bass] ^G,,4- | %57
 G,,2 ^G,,,4- | G,,,2 x4 | x6 | x6 | x6 | x6 | x2 E,,2 ^G,,2 | .^C,2 x4 | x6 | x6 | x6 | x6 | x6 | %70
 x6 | x6 | x6 | x6 | x6 ||[M:4/4] D,,E,, F,,E,, D,,2 A,,,2 | D,,E,, F,,E,, D,,2 A,,,2 | %77
 D,,E,, ^F,,2 E,,F,, G,,2 | A,,G,, ^F,,E,, D,,2 A,,,2 | x8 | x4 A,,2 A,,2 |[M:3/4] D,,,6 | %82
 D,,2 D,,2 D,,2 | .D,2 .D,,2 .D,,2 | D,2 D,2 D,2 | x2 D,2 D,2 | .D,,2 .D,,2 .D,,2 | %87
 .D,2 .D,2 .D,2 | .D,2 .D,2 .D,2 ||[M:9/4] C,,6 =B,,,6 _B,,,6 | A,,,6 G,,,6 A,,,6 | x6 A,,6 A,,6 | %92
 A,,,12 D,,,6 | D,,,12- D,,,6 | D,,,12- D,,,6 | D,,,12- D,,,6- | D,,,12 x6 | x18 |] %98

